src/assets/outline/MusicPlaylist.svg

<?xml version="1.0" encoding="UTF-8"?>
<svg width="24" height="24" viewBox="0 0 24 24" xmlns="http://www.w3.org/2000/svg">
 <path d="m17 22.75h-10c-3.65 0-5.75-2.1-5.75-5.75v-5c0-3.65 2.1-5.75 5.75-5.75h10c3.65 0 5.75 2.1 5.75 5.75v5c0 3.65-2.1 5.75-5.75 5.75zm-10-15c-2.86 0-4.25 1.39-4.25 4.25v5c0 2.86 1.39 4.25 4.25 4.25h10c2.86 0 4.25-1.39 4.25-4.25v-5c0-2.86-1.39-4.25-4.25-4.25h-10z"/>
 <path d="m18 5.25h-12c-0.41 0-0.75-0.34-0.75-0.75s0.34-0.75 0.75-0.75h12c0.41 0 0.75 0.34 0.75 0.75s-0.34 0.75-0.75 0.75z"/>
 <path d="m15 2.75h-6c-0.41 0-0.75-0.34-0.75-0.75s0.34-0.75 0.75-0.75h6c0.41 0 0.75 0.34 0.75 0.75s-0.34 0.75-0.75 0.75z"/>
 <path d="m8.89 19.86c-1.17 0-2.12-0.95-2.12-2.12s0.94999-2.12 2.12-2.12c1.17 0 2.12 0.95 2.12 2.12s-0.95 2.12-2.12 2.12zm0-2.74c-0.34 0-0.61999 0.28-0.61999 0.62s0.27999 0.62 0.61999 0.62 0.62-0.28 0.62-0.62-0.28-0.62-0.62-0.62z"/>
 <path d="m10.26 18.49c-0.41003 0-0.75003-0.34-0.75003-0.75v-5.51c0-0.88 0.55003-1.59 1.39-1.82l2.74-0.74999c0.87-0.24 1.4199-0.00996 1.7199 0.23004 0.3 0.22995 0.6601 0.69995 0.6601 1.59v5.35c0 0.41-0.34 0.75-0.75 0.75s-0.75-0.34-0.75-0.75v-5.35c0-0.28-0.06-0.39-0.08-0.4s-0.14-0.05-0.42 0.03l-2.7301 0.75c-0.25 0.07-0.2899 0.24-0.2899 0.38v5.51c0.01 0.4-0.33 0.74-0.74 0.74z"/>
 <path d="m13.91 18.95c-1.17 0-2.12-0.95-2.12-2.12s0.95-2.12 2.12-2.12 2.1201 0.95 2.1201 2.12-0.9501 2.12-2.1201 2.12zm0-2.74c-0.34 0-0.62 0.28-0.62 0.62s0.28 0.62 0.62 0.62 0.6201-0.28 0.6201-0.62-0.2801-0.62-0.6201-0.62z"/>
 <path d="m10.26 14.58c-0.32997 0-0.63-0.22-0.72-0.55-0.11-0.4 0.13003-0.81 0.53-0.92l5.01-1.37c0.41-0.11 0.81 0.13 0.92 0.53s-0.13 0.81-0.53 0.92l-5.01 1.37c-0.07 0.01-0.13 0.02-0.2 0.02z"/>
</svg>

<svg width="24" height="24" viewBox="0 0 24 24"  xmlns="http://www.w3.org/2000/svg">
<path d="M17 22.75H7C3.35 22.75 1.25 20.65 1.25 17V12C1.25 8.35 3.35 6.25 7 6.25H17C20.65 6.25 22.75 8.35 22.75 12V17C22.75 20.65 20.65 22.75 17 22.75ZM7 7.75C4.14 7.75 2.75 9.14 2.75 12V17C2.75 19.86 4.14 21.25 7 21.25H17C19.86 21.25 21.25 19.86 21.25 17V12C21.25 9.14 19.86 7.75 17 7.75H7Z" />
<path d="M18 5.25H6C5.59 5.25 5.25 4.91 5.25 4.5C5.25 4.09 5.59 3.75 6 3.75H18C18.41 3.75 18.75 4.09 18.75 4.5C18.75 4.91 18.41 5.25 18 5.25Z" />
<path d="M15 2.75H9C8.59 2.75 8.25 2.41 8.25 2C8.25 1.59 8.59 1.25 9 1.25H15C15.41 1.25 15.75 1.59 15.75 2C15.75 2.41 15.41 2.75 15 2.75Z" />
<path d="M8.89001 19.8601C7.72001 19.8601 6.77002 18.9101 6.77002 17.7401C6.77002 16.5701 7.72001 15.6201 8.89001 15.6201C10.06 15.6201 11.01 16.5701 11.01 17.7401C11.01 18.9101 10.06 19.8601 8.89001 19.8601ZM8.89001 17.1201C8.55001 17.1201 8.27002 17.4001 8.27002 17.7401C8.27002 18.0801 8.55001 18.3601 8.89001 18.3601C9.23001 18.3601 9.51001 18.0801 9.51001 17.7401C9.51001 17.4001 9.23001 17.1201 8.89001 17.1201Z" />
<path d="M10.2598 18.4901C9.84977 18.4901 9.50977 18.1501 9.50977 17.7401V12.2301C9.50977 11.3501 10.0598 10.6401 10.8998 10.4101L13.6398 9.66011C14.5098 9.42011 15.0597 9.65015 15.3597 9.89015C15.6597 10.1201 16.0198 10.5901 16.0198 11.4801V16.8301C16.0198 17.2401 15.6798 17.5801 15.2698 17.5801C14.8598 17.5801 14.5198 17.2401 14.5198 16.8301V11.4801C14.5198 11.2001 14.4598 11.0901 14.4398 11.0801C14.4198 11.0701 14.2998 11.0301 14.0198 11.1101L11.2897 11.8601C11.0397 11.9301 10.9998 12.1001 10.9998 12.2401V17.7501C11.0098 18.1501 10.6698 18.4901 10.2598 18.4901Z" />
<path d="M13.91 18.95C12.74 18.95 11.79 18 11.79 16.83C11.79 15.66 12.74 14.71 13.91 14.71C15.08 14.71 16.0301 15.66 16.0301 16.83C16.0301 18 15.08 18.95 13.91 18.95ZM13.91 16.21C13.57 16.21 13.29 16.49 13.29 16.83C13.29 17.17 13.57 17.45 13.91 17.45C14.25 17.45 14.5301 17.17 14.5301 16.83C14.5301 16.49 14.25 16.21 13.91 16.21Z" />
<path d="M10.2599 14.5801C9.92993 14.5801 9.6299 14.3601 9.5399 14.0301C9.4299 13.6301 9.66993 13.2201 10.0699 13.1101L15.0799 11.7401C15.4899 11.6301 15.8899 11.8701 15.9999 12.2701C16.1099 12.6701 15.8699 13.0801 15.4699 13.1901L10.4599 14.5601C10.3899 14.5701 10.3299 14.5801 10.2599 14.5801Z" />
</svg>
